src/img/icons/data-explore.svg

<?xml version="1.0" encoding="UTF-8"?>
<svg width="90px" height="90px" viewBox="0 0 90 90" version="1.1" xmlns="http://www.w3.org/2000/svg" xmlns:xlink="http://www.w3.org/1999/xlink">
    <!-- Generator: Sketch 49.3 (51167) - http://www.bohemiancoding.com/sketch -->
    <title>skills</title>
    <desc>Created with Sketch.</desc>
    <defs></defs>
    <g id="Welcome" stroke="none" stroke-width="1" fill="none" fill-rule="evenodd">
        <g id="1-index-1440" transform="translate(-517.000000, -532.000000)" fill-rule="nonzero">
            <g id="Group-4" transform="translate(417.000000, 461.000000)">
                <g id="skills" transform="translate(100.000000, 71.000000)">
                    <circle id="Oval" fill="#E7E7E7" cx="44.9219406" cy="44.9219406" r="44.9219406"></circle>
                    <rect id="Rectangle-path" fill="#FFFFFF" x="69.7692475" y="1.40382178" width="8.42293069" height="62.6098812"></rect>
                    <path d="M78.1921782,65.4175248 L69.7692475,65.4175248 C68.9269901,65.4175248 68.3654257,64.8559604 68.3654257,64.013703 L68.3654257,1.40382178 C68.3654257,0.561564356 68.9269901,0 69.7692475,0 L78.1921782,0 C79.0344356,0 79.596,0.561564356 79.596,1.40382178 L79.596,64.013703 C79.596,64.7155248 78.894,65.4175248 78.1921782,65.4175248 Z M71.1730693,62.6098812 L76.7883564,62.6098812 L76.7883564,2.80764356 L71.1730693,2.80764356 L71.1730693,62.6098812 Z" id="Shape" fill="#183651"></path>
                    <polyline id="Shape" fill="#3283C8" points="69.7692475 15.7227327 69.7692475 64.013703 78.1921782 64.013703 78.1921782 15.7227327"></polyline>
                    <path d="M78.1921782,65.4175248 L69.7692475,65.4175248 C68.9269901,65.4175248 68.3654257,64.8559604 68.3654257,64.013703 L68.3654257,15.7227327 C68.3654257,14.8804752 68.9269901,14.3189109 69.7692475,14.3189109 C70.611505,14.3189109 71.1730693,14.8804752 71.1730693,15.7227327 L71.1730693,62.6098812 L76.7883564,62.6098812 L76.7883564,15.7227327 C76.7883564,14.8804752 77.3499208,14.3189109 78.1921782,14.3189109 C79.0344356,14.3189109 79.596,14.8804752 79.596,15.7227327 L79.596,64.013703 C79.596,64.7155248 78.894,65.4175248 78.1921782,65.4175248 Z" id="Shape" fill="#183651"></path>
                    <rect id="Rectangle-path" fill="#FFFFFF" x="40.7104752" y="1.40382178" width="8.42293069" height="62.6098812"></rect>
                    <path d="M49.1332277,65.4175248 L40.710297,65.4175248 C39.8680396,65.4175248 39.3064752,64.8559604 39.3064752,64.013703 L39.3064752,1.40382178 C39.3064752,0.561564356 39.8680396,0 40.710297,0 L49.1332277,0 C49.9754851,0 50.5370495,0.561564356 50.5370495,1.40382178 L50.5370495,64.013703 C50.5370495,64.7155248 49.9754851,65.4175248 49.1332277,65.4175248 Z M42.114297,62.6098812 L47.7295842,62.6098812 L47.7295842,2.80764356 L42.114297,2.80764356 L42.114297,62.6098812 Z" id="Shape" fill="#183651"></path>
                    <polyline id="Shape" fill="#05B8EE" points="40.7104752 26.6724356 40.7104752 64.013703 49.1332277 64.013703 49.1332277 26.6724356"></polyline>
                    <path d="M49.1332277,65.4175248 L40.710297,65.4175248 C39.8680396,65.4175248 39.3064752,64.8559604 39.3064752,64.013703 L39.3064752,26.6724356 C39.3064752,25.8301782 39.8680396,25.2686139 40.710297,25.2686139 C41.5525545,25.2686139 42.1141188,25.8301782 42.1141188,26.6724356 L42.1141188,62.6098812 L47.7294059,62.6098812 L47.7294059,26.6724356 C47.7294059,25.8301782 48.2909703,25.2686139 49.1332277,25.2686139 C49.9754851,25.2686139 50.5370495,25.8301782 50.5370495,26.6724356 L50.5370495,64.013703 C50.5370495,64.7155248 49.9754851,65.4175248 49.1332277,65.4175248 Z" id="Shape" fill="#183651"></path>
                    <rect id="Rectangle-path" fill="#FFFFFF" x="11.6515248" y="1.40382178" width="8.42293069" height="62.6098812"></rect>
                    <path d="M20.0744554,65.4175248 L11.6515248,65.4175248 C10.8092673,65.4175248 10.247703,64.8559604 10.247703,64.013703 L10.247703,1.40382178 C10.2478812,0.561564356 10.8092673,0 11.6515248,0 L20.0744554,0 C20.9167129,0 21.4782772,0.561564356 21.4782772,1.40382178 L21.4782772,64.013703 C21.4782772,64.7155248 20.9167129,65.4175248 20.0744554,65.4175248 Z M13.0553465,62.6098812 L18.6706337,62.6098812 L18.6706337,2.80764356 L13.0553465,2.80764356 L13.0553465,62.6098812 Z" id="Shape" fill="#183651"></path>
                    <polyline id="Shape" fill="#E1E6E7" points="11.6515248 37.3412673 11.6515248 64.013703 20.0744554 64.013703 20.0744554 37.3412673"></polyline>
                    <g id="Group" transform="translate(10.158416, 11.227723)" fill="#183651">
                        <path d="M9.9160396,54.189802 L1.49310891,54.189802 C0.650851485,54.189802 0.0892871287,53.6282376 0.0892871287,52.7859802 L0.0892871287,26.1135446 C0.0892871287,25.2712871 0.650851485,24.7097228 1.49310891,24.7097228 C2.33536634,24.7097228 2.89693069,25.2712871 2.89693069,26.1135446 L2.89693069,51.3821584 L8.51221782,51.3821584 L8.51221782,26.1135446 C8.51221782,25.2712871 9.07378218,24.7097228 9.9160396,24.7097228 C10.758297,24.7097228 11.3198614,25.2712871 11.3198614,26.1135446 L11.3198614,52.7859802 C11.3198614,53.487802 10.758297,54.189802 9.9160396,54.189802 Z" id="Shape"></path>
                        <rect id="Rectangle-path" x="47.8188713" y="42.1169703" width="2.80764356" height="2.80764356"></rect>
                        <rect id="Rectangle-path" x="47.8188713" y="33.6942178" width="2.80764356" height="2.80764356"></rect>
                        <rect id="Rectangle-path" x="47.8188713" y="25.2712871" width="2.80764356" height="2.80764356"></rect>
                        <rect id="Rectangle-path" x="47.8188713" y="16.8483564" width="2.80764356" height="2.80764356"></rect>
                        <rect id="Rectangle-path" x="47.8188713" y="8.42560396" width="2.80764356" height="2.80764356"></rect>
                        <rect id="Rectangle-path" x="47.8188713" y="0.00267326733" width="2.80764356" height="2.80764356"></rect>
                        <rect id="Rectangle-path" x="18.9003564" y="42.1169703" width="2.80764356" height="2.80764356"></rect>
                        <rect id="Rectangle-path" x="18.9003564" y="33.6942178" width="2.80764356" height="2.80764356"></rect>
                        <rect id="Rectangle-path" x="18.9003564" y="25.2712871" width="2.80764356" height="2.80764356"></rect>
                        <rect id="Rectangle-path" x="18.9003564" y="16.8483564" width="2.80764356" height="2.80764356"></rect>
                        <rect id="Rectangle-path" x="18.9003564" y="8.42560396" width="2.80764356" height="2.80764356"></rect>
                        <rect id="Rectangle-path" x="18.9003564" y="0.00267326733" width="2.80764356" height="2.80764356"></rect>
                    </g>
                    <path d="M85.0708515,77.4901782 L73.9807129,71.4537624 L62.8905743,77.4901782 C60.7849307,78.6133069 59.5213663,80.8593861 59.5213663,83.2457228 L59.5213663,88.4398812 L88.5801386,88.4398812 L88.5801386,83.2457228 C88.4398812,80.8593861 87.176495,78.6133069 85.0708515,77.4901782 Z" id="Shape" fill="#3283C8"></path>
                    <path d="M88.4398812,89.843703 L59.3811089,89.843703 C58.5388515,89.843703 57.9772871,89.2821386 57.9772871,88.4398812 L57.9772871,83.2457228 C57.9772871,80.2976436 59.5215446,77.6304356 62.0483168,76.2266139 L73.1384554,70.190198 C73.5595842,69.909505 74.1211485,69.909505 74.5422772,70.190198 L85.6324158,76.2266139 C88.1591881,77.6304356 89.7034455,80.2976436 89.7034455,83.2457228 L89.7034455,88.4398812 C89.843703,89.2821386 89.2821386,89.843703 88.4398812,89.843703 Z M60.7849307,87.0360594 L87.0360594,87.0360594 L87.0360594,83.2457228 C87.0360594,81.4207723 86.0533663,79.5958218 84.3688515,78.7535644 L73.8402772,72.9980198 L63.311703,78.7535644 C61.6271881,79.5958218 60.644495,81.4207723 60.644495,83.2457228 L60.644495,87.0360594 L60.7849307,87.0360594 Z" id="Shape" fill="#183651"></path>
                    <path d="M56.011901,77.4901782 L44.9217624,71.4537624 L33.8316238,77.4901782 C31.7259802,78.6133069 30.4624158,80.8593861 30.4624158,83.2457228 L30.4624158,88.4398812 L59.5211881,88.4398812 L59.5211881,83.2457228 C59.3811089,80.8593861 58.1177228,78.6133069 56.011901,77.4901782 Z" id="Shape" fill="#9B9B9B"></path>
                    <path d="M59.3811089,89.843703 L30.4625941,89.843703 C29.6203366,89.843703 29.0587723,89.2821386 29.0587723,88.4398812 L29.0587723,83.2457228 C29.0587723,80.2976436 30.6030297,77.6304356 33.129802,76.2266139 L44.2199406,70.190198 C44.6410693,69.909505 45.2026337,69.909505 45.6237624,70.190198 L56.713901,76.2266139 C59.2406733,77.6304356 60.7849307,80.2976436 60.7849307,83.2457228 L60.7849307,88.4398812 C60.7849307,89.2821386 60.2233663,89.843703 59.3811089,89.843703 Z M31.8664158,87.0360594 L58.1175446,87.0360594 L58.1175446,83.2457228 C58.1175446,81.4207723 57.1348515,79.5958218 55.4503366,78.7535644 L44.9219406,72.9980198 L34.3933663,78.7535644 C32.7088515,79.5958218 31.7261584,81.4207723 31.7261584,83.2457228 L31.7261584,87.0360594 L31.8664158,87.0360594 Z" id="Shape" fill="#183651"></path>
                    <path d="M81.2805149,64.8559604 C81.2805149,69.7692475 78.0517426,75.3845347 73.9807129,75.3845347 C69.9096832,75.3845347 66.6809109,69.9096832 66.6809109,64.8559604 C66.6809109,59.9426733 69.9096832,57.4157228 73.9807129,57.4157228 C78.0517426,57.4157228 81.2805149,59.9426733 81.2805149,64.8559604 Z" id="Shape" fill="#FFFFFF"></path>
                    <path d="M73.9807129,76.7883564 C69.0674257,76.7883564 65.2770891,70.4712475 65.2770891,64.8559604 C65.2770891,59.5215446 68.7865545,56.011901 73.9807129,56.011901 C79.1748713,56.011901 82.6843366,59.5213663 82.6843366,64.8559604 C82.6843366,70.4712475 78.894,76.7883564 73.9807129,76.7883564 Z M73.9807129,58.9599802 C70.3308119,58.9599802 68.0847327,61.2060594 68.0847327,64.996396 C68.0847327,69.4885545 71.0328119,74.1211485 73.9807129,74.1211485 C76.9287921,74.1211485 79.8766931,69.4885545 79.8766931,64.996396 C79.8766931,61.2060594 77.6306139,58.9599802 73.9807129,58.9599802 Z" id="Shape" fill="#183651"></path>
                    <path d="M52.2217426,64.8559604 C52.2217426,69.7692475 48.9929703,75.3845347 44.9219406,75.3845347 C40.8509109,75.3845347 37.6221386,69.9096832 37.6221386,64.8559604 C37.6221386,59.9426733 40.8509109,57.4157228 44.9219406,57.4157228 C48.9929703,57.4157228 52.2217426,59.9426733 52.2217426,64.8559604 Z" id="Shape" fill="#FFFFFF"></path>
                    <path d="M44.9219406,76.7883564 C40.0086535,76.7883564 36.2183168,70.4712475 36.2183168,64.8559604 C36.2183168,59.5215446 39.7277822,56.011901 44.9219406,56.011901 C50.116099,56.011901 53.6255644,59.5213663 53.6255644,64.8559604 C53.6253861,70.4712475 49.8352277,76.7883564 44.9219406,76.7883564 Z M44.9219406,58.9599802 C41.2720396,58.9599802 39.0259604,61.2060594 39.0259604,64.996396 C39.0259604,69.4885545 41.9740396,74.1211485 44.9219406,74.1211485 C47.8698416,74.1211485 50.8179208,69.4885545 50.8179208,64.996396 C50.8179208,61.2060594 48.5718416,58.9599802 44.9219406,58.9599802 Z" id="Shape" fill="#183651"></path>
                    <path d="M27.0935644,77.4901782 L16.0034257,71.4537624 L4.91328713,77.4901782 C2.80764356,78.6133069 1.54407921,80.8593861 1.54407921,83.2457228 L1.54407921,88.4398812 L30.6028515,88.4398812 L30.6028515,83.2457228 C30.4625941,80.8593861 29.0587723,78.6133069 27.0935644,77.4901782 Z" id="Shape" fill="#05B8EE"></path>
                    <path d="M30.4625941,89.843703 L1.40382178,89.843703 C0.561564356,89.843703 0,89.2821386 0,88.4398812 L0,83.2457228 C0,80.2976436 1.54425743,77.6304356 4.0710297,76.2266139 L15.1611683,70.190198 C15.582297,69.909505 16.1438614,69.909505 16.5649901,70.190198 L27.6551287,76.2266139 C30.181901,77.6304356 31.7261584,80.2976436 31.7261584,83.2457228 L31.7261584,88.4398812 C31.8664158,89.2821386 31.1645941,89.843703 30.4625941,89.843703 Z M2.80764356,87.0360594 L29.0587723,87.0360594 L29.0587723,83.2457228 C29.0587723,81.4207723 28.0760792,79.5958218 26.3915644,78.7535644 L15.8629901,72.9980198 L5.33441584,78.7535644 C3.64990099,79.5958218 2.66720792,81.4207723 2.66720792,83.2457228 L2.66720792,87.0360594 L2.80764356,87.0360594 Z" id="Shape" fill="#183651"></path>
                    <path d="M23.1627921,64.8559604 C23.1627921,69.7692475 19.9340198,75.3845347 15.8629901,75.3845347 C11.7919604,75.3845347 8.56318812,69.9096832 8.56318812,64.8559604 C8.56318812,59.9426733 11.7919604,57.4157228 15.8629901,57.4157228 C19.9340198,57.4157228 23.1627921,59.9426733 23.1627921,64.8559604 Z" id="Shape" fill="#FFFFFF"></path>
                    <path d="M15.8629901,76.7883564 C10.949703,76.7883564 7.15936634,70.4712475 7.15936634,64.8559604 C7.15936634,59.5215446 10.6688317,56.011901 15.8629901,56.011901 C21.0571485,56.011901 24.5666139,59.661802 24.5666139,64.8559604 C24.5666139,70.4712475 20.9167129,76.7883564 15.8629901,76.7883564 Z M15.8629901,58.9599802 C12.2130891,58.9599802 9.9670099,61.2060594 9.9670099,64.996396 C9.9670099,69.4885545 12.9150891,74.1211485 15.8629901,74.1211485 C18.8108911,74.1211485 21.7589703,69.4885545 21.7589703,64.996396 C21.7589703,61.2060594 19.6533267,58.9599802 15.8629901,58.9599802 Z" id="Shape" fill="#183651"></path>
                </g>
            </g>
        </g>
    </g>
</svg>

<svg width="90" height="90" xmlns="http://www.w3.org/2000/svg"><g fill="none"><circle fill="#E7E7E7" cx="44.922" cy="44.922" r="44.922"/><path fill="#FFF" d="M69.769 1.404h8.423v62.61h-8.423z"/><path d="M78.192 65.418H69.77c-.842 0-1.404-.562-1.404-1.404V1.404C68.365.562 68.927 0 69.77 0h8.423c.842 0 1.404.562 1.404 1.404v62.61c0 .702-.702 1.404-1.404 1.404zm-7.019-2.808h5.615V2.808h-5.615V62.61z" fill="#183651"/><path fill="#3283C8" d="M69.77 15.723v48.29h8.422v-48.29"/><path d="M78.192 65.418H69.77c-.842 0-1.404-.562-1.404-1.404V15.723c0-.843.562-1.404 1.404-1.404.843 0 1.404.561 1.404 1.404V62.61h5.615V15.723c0-.843.562-1.404 1.404-1.404.842 0 1.404.561 1.404 1.404v48.29c0 .703-.702 1.405-1.404 1.405z" fill="#183651"/><path fill="#FFF" d="M40.71 1.404h8.423v62.61H40.71z"/><path d="M49.133 65.418H40.71c-.842 0-1.404-.562-1.404-1.404V1.404C39.306.562 39.868 0 40.71 0h8.423c.842 0 1.404.562 1.404 1.404v62.61c0 .702-.562 1.404-1.404 1.404zm-7.019-2.808h5.616V2.808h-5.616V62.61z" fill="#183651"/><path fill="#05B8EE" d="M40.71 26.672v37.342h8.423V26.672"/><path d="M49.133 65.418H40.71c-.842 0-1.404-.562-1.404-1.404V26.672c0-.842.562-1.403 1.404-1.403.843 0 1.404.561 1.404 1.403V62.61h5.615V26.672c0-.842.562-1.403 1.404-1.403.842 0 1.404.561 1.404 1.403v37.342c0 .702-.562 1.404-1.404 1.404z" fill="#183651"/><path fill="#FFF" d="M11.652 1.404h8.423v62.61h-8.423z"/><path d="M20.074 65.418h-8.422c-.843 0-1.404-.562-1.404-1.404V1.404c0-.842.561-1.404 1.404-1.404h8.422c.843 0 1.404.562 1.404 1.404v62.61c0 .702-.561 1.404-1.404 1.404zm-7.019-2.808h5.616V2.808h-5.616V62.61z" fill="#183651"/><path fill="#E1E6E7" d="M11.652 37.341v26.673h8.422V37.34"/><path d="M20.074 65.418h-8.422c-.843 0-1.404-.562-1.404-1.404V37.34c0-.842.561-1.404 1.404-1.404.842 0 1.403.562 1.403 1.404v25.27h5.616V37.34c0-.842.561-1.404 1.403-1.404.843 0 1.404.562 1.404 1.404v26.673c0 .702-.561 1.404-1.404 1.404zm37.903-12.073h2.808v2.808h-2.808zm0-8.423h2.808v2.808h-2.808zm0-8.423h2.808v2.808h-2.808zm0-8.423h2.808v2.808h-2.808zm0-8.422h2.808v2.808h-2.808zm0-8.424h2.808v2.809h-2.808zM29.058 53.345h2.808v2.808h-2.808zm0-8.423h2.808v2.808h-2.808zm0-8.423h2.808v2.808h-2.808zm0-8.423h2.808v2.808h-2.808zm0-8.422h2.808v2.808h-2.808zm0-8.424h2.808v2.809h-2.808z" fill="#183651"/><path d="M85.07 77.49l-11.09-6.036-11.09 6.036c-2.105 1.123-3.369 3.37-3.369 5.756v5.194h29.06v-5.194c-.141-2.387-1.405-4.633-3.51-5.756z" fill="#3283C8"/><path d="M88.44 89.844H59.38c-.842 0-1.404-.562-1.404-1.404v-5.194c0-2.948 1.545-5.616 4.071-7.02l11.09-6.036c.422-.28.983-.28 1.404 0l11.09 6.037c2.527 1.403 4.071 4.07 4.071 7.019v5.194c.14.842-.42 1.404-1.263 1.404zm-27.655-2.808h26.251v-3.79c0-1.825-.983-3.65-2.667-4.492L73.84 72.998l-10.528 5.756c-1.685.842-2.668 2.667-2.668 4.492v3.79h.14z" fill="#183651"/><path d="M56.012 77.49l-11.09-6.036-11.09 6.036c-2.106 1.123-3.37 3.37-3.37 5.756v5.194h29.06v-5.194c-.14-2.387-1.404-4.633-3.51-5.756z" fill="#9B9B9B"/><path d="M59.381 89.844H30.463c-.843 0-1.404-.562-1.404-1.404v-5.194c0-2.948 1.544-5.616 4.07-7.02l11.09-6.036a1.28 1.28 0 011.405 0l11.09 6.037c2.527 1.403 4.07 4.07 4.07 7.019v5.194c0 .842-.56 1.404-1.403 1.404zm-27.515-2.808h26.252v-3.79c0-1.825-.983-3.65-2.668-4.492l-10.528-5.756-10.529 5.756c-1.684.842-2.667 2.667-2.667 4.492v3.79h.14z" fill="#183651"/><path d="M81.28 64.856c0 4.913-3.228 10.529-7.3 10.529-4.07 0-7.3-5.475-7.3-10.529 0-4.913 3.23-7.44 7.3-7.44 4.072 0 7.3 2.527 7.3 7.44z" fill="#FFF"/><path d="M73.98 76.788c-4.913 0-8.703-6.317-8.703-11.932 0-5.334 3.51-8.844 8.704-8.844 5.194 0 8.703 3.51 8.703 8.844 0 5.615-3.79 11.932-8.703 11.932zm0-17.828c-3.65 0-5.895 2.246-5.895 6.036 0 4.493 2.948 9.125 5.896 9.125s5.896-4.632 5.896-9.125c0-3.79-2.246-6.036-5.896-6.036z" fill="#183651"/><path d="M52.222 64.856c0 4.913-3.229 10.529-7.3 10.529s-7.3-5.475-7.3-10.529c0-4.913 3.229-7.44 7.3-7.44s7.3 2.527 7.3 7.44z" fill="#FFF"/><path d="M44.922 76.788c-4.913 0-8.704-6.317-8.704-11.932 0-5.334 3.51-8.844 8.704-8.844 5.194 0 8.704 3.51 8.704 8.844 0 5.615-3.79 11.932-8.704 11.932zm0-17.828c-3.65 0-5.896 2.246-5.896 6.036 0 4.493 2.948 9.125 5.896 9.125s5.896-4.632 5.896-9.125c0-3.79-2.246-6.036-5.896-6.036z" fill="#183651"/><path d="M27.094 77.49l-11.09-6.036-11.09 6.036c-2.106 1.123-3.37 3.37-3.37 5.756v5.194h29.059v-5.194c-.14-2.387-1.544-4.633-3.51-5.756z" fill="#05B8EE"/><path d="M30.463 89.844H1.403C.563 89.844 0 89.282 0 88.44v-5.194c0-2.948 1.544-5.616 4.071-7.02l11.09-6.036c.421-.28.983-.28 1.404 0l11.09 6.037c2.527 1.403 4.071 4.07 4.071 7.019v5.194c.14.842-.561 1.404-1.263 1.404zM2.808 87.036h26.25v-3.79c0-1.825-.982-3.65-2.666-4.492l-10.529-5.756-10.529 5.756c-1.684.842-2.667 2.667-2.667 4.492v3.79h.14z" fill="#183651"/><path d="M23.163 64.856c0 4.913-3.229 10.529-7.3 10.529s-7.3-5.475-7.3-10.529c0-4.913 3.229-7.44 7.3-7.44s7.3 2.527 7.3 7.44z" fill="#FFF"/><path d="M15.863 76.788c-4.913 0-8.704-6.317-8.704-11.932 0-5.334 3.51-8.844 8.704-8.844 5.194 0 8.704 3.65 8.704 8.844 0 5.615-3.65 11.932-8.704 11.932zm0-17.828c-3.65 0-5.896 2.246-5.896 6.036 0 4.493 2.948 9.125 5.896 9.125s5.896-4.632 5.896-9.125c0-3.79-2.106-6.036-5.896-6.036z" fill="#183651"/></g></svg>
